svgs/reddit.svg

<svg width="192" height="192" viewBox="0 0 192 192" fill="none" xmlns="http://www.w3.org/2000/svg">
<path d="M33.067 111.226L38.8929 112.661C39.6455 109.605 37.9093 106.487 34.9152 105.518L33.067 111.226ZM50.6149 86.1578L45.8871 89.8521C47.9028 92.4318 51.6144 92.9194 54.2281 90.9479L50.6149 86.1578ZM141.385 86.1578L137.772 90.9479C140.386 92.9194 144.097 92.4318 146.113 89.8521L141.385 86.1578ZM158.933 111.226L157.085 105.518C154.091 106.487 152.354 109.605 153.107 112.661L158.933 111.226ZM96 174.001C114.846 174.001 132.138 168.279 144.855 158.742C157.573 149.203 166 135.568 166 120.001H154C154 130.944 148.1 141.308 137.655 149.142C127.208 156.977 112.5 162.001 96 162.001V174.001ZM26 120.001C26 135.568 34.4269 149.203 47.1452 158.742C59.8616 168.279 77.1542 174.001 96 174.001V162.001C79.4996 162.001 64.7922 156.977 54.3452 149.142C43.9 141.308 38 130.944 38 120.001H26ZM27.2411 109.791C26.4268 113.097 26 116.512 26 120.001H38C38 117.496 38.3057 115.045 38.8929 112.661L27.2411 109.791ZM16 96.001C16 105.794 22.3939 114.077 31.2188 116.934L34.9152 105.518C30.8949 104.216 28 100.439 28 96.001H16ZM38 74.001C25.8497 74.001 16 83.8507 16 96.001H28C28 90.4781 32.4772 86.001 38 86.001V74.001ZM55.3427 82.4636C51.3262 77.3234 45.0495 74.001 38 74.001V86.001C41.1997 86.001 44.0469 87.4971 45.8871 89.8521L55.3427 82.4636ZM96 66.001C77.0839 66.001 59.7317 71.7654 47.0017 81.3678L54.2281 90.9479C64.6818 83.0626 79.4371 78.001 96 78.001V66.001ZM144.998 81.3678C132.268 71.7654 114.916 66.001 96 66.001V78.001C112.563 78.001 127.318 83.0626 137.772 90.9479L144.998 81.3678ZM146.113 89.8521C147.953 87.4971 150.8 86.001 154 86.001V74.001C146.95 74.001 140.674 77.3234 136.657 82.4636L146.113 89.8521ZM154 86.001C159.523 86.001 164 90.4781 164 96.001H176C176 83.8507 166.15 74.001 154 74.001V86.001ZM164 96.001C164 100.439 161.105 104.216 157.085 105.518L160.781 116.934C169.606 114.077 176 105.794 176 96.001H164ZM166 120.001C166 116.512 165.573 113.097 164.759 109.791L153.107 112.661C153.694 115.045 154 117.496 154 120.001H166Z" fill="black"/>
<circle cx="68" cy="110.001" r="12" fill="black"/>
<circle cx="124" cy="110.001" r="12" fill="black"/>
<path d="M120 138.001C120 138.001 112 144.001 96 144.001C80 144.001 72 138.001 72 138.001" stroke="black" stroke-width="12" stroke-linecap="round"/>
<circle cx="146" cy="36.001" r="12" stroke="black" stroke-width="12"/>
<path fill-rule="evenodd" clip-rule="evenodd" d="M107.177 22.1176C103.987 21.4797 100.87 23.4995 100.149 26.6713L90.1492 70.6713C89.4148 73.9026 91.4389 77.1175 94.6702 77.8519C97.9015 78.5863 101.116 76.5621 101.851 73.3308L110.555 35.031L134.629 39.8457C134.221 38.6387 134 37.3457 134 36.001C134 32.9653 135.127 30.1928 136.986 28.0794L107.177 22.1176Z" fill="black"/>
</svg>

<svg xmlns="http://www.w3.org/2000/svg" width="192" height="192" fill="none" xmlns:v="https://vecta.io/nano"><g fill="#000"><path d="M33.067 111.226l5.826 1.435a6 6 0 0 0-3.978-7.143l-1.848 5.708zm17.548-25.068l-4.728 3.694a6 6 0 0 0 8.341 1.096l-3.613-4.79zm90.77 0l-3.613 4.79a6 6 0 0 0 8.341-1.096l-4.728-3.694zm17.548 25.068l-1.848-5.708a6 6 0 0 0-3.978 7.143l5.826-1.435zM96 174.001c18.846 0 36.138-5.722 48.855-15.259S166 135.568 166 120.001h-12c0 10.943-5.9 21.307-16.345 29.141S112.5 162.001 96 162.001v12zm-70-54c0 15.567 8.427 29.202 21.145 38.741S77.154 174.001 96 174.001v-12c-16.5 0-31.208-5.024-41.655-12.859S38 130.944 38 120.001H26zm1.241-10.21c-.814 3.306-1.241 6.721-1.241 10.21h12a30.61 30.61 0 0 1 .893-7.34l-11.652-2.87zM16 96.001c0 9.793 6.394 18.076 15.219 20.933l3.696-11.416c-4.02-1.302-6.915-5.079-6.915-9.517H16zm22-22c-12.15 0-22 9.85-22 22h12c0-5.523 4.477-10 10-10v-12zm17.343 8.463C51.326 77.323 45.05 74.001 38 74.001v12c3.2 0 6.047 1.496 7.887 3.851l9.456-7.388zM96 66.001c-18.916 0-36.268 5.764-48.998 15.367l7.226 9.58C64.682 83.063 79.437 78.001 96 78.001v-12zm48.998 15.367C132.268 71.765 114.916 66.001 96 66.001v12c16.563 0 31.318 5.062 41.772 12.947l7.226-9.58zm1.115 8.484A9.97 9.97 0 0 1 154 86.001v-12c-7.05 0-13.326 3.322-17.343 8.463l9.456 7.388zM154 86.001a10 10 0 0 1 10 10h12c0-12.15-9.85-22-22-22v12zm10 10c0 4.438-2.895 8.215-6.915 9.517l3.696 11.416c8.825-2.857 15.219-11.14 15.219-20.933h-12zm2 24a42.63 42.63 0 0 0-1.241-10.21l-11.652 2.87a30.62 30.62 0 0 1 .893 7.34h12z"/><circle cx="68" cy="110.001" r="12"/><circle cx="124" cy="110.001" r="12"/></g><g stroke="#000" stroke-width="12"><path d="M120 138.001s-8 6-24 6-24-6-24-6" stroke-linecap="round"/><circle cx="146" cy="36.001" r="12"/></g><path fill-rule="evenodd" d="M107.177 22.118a6 6 0 0 0-7.028 4.554l-10 44a6 6 0 1 0 11.702 2.659l8.704-38.3 24.074 4.815c-.408-1.207-.629-2.5-.629-3.845 0-3.036 1.127-5.808 2.986-7.922l-29.809-5.962z" fill="#000"/></svg>
